X:432
T: MITTEN IM SCHIMMER DER SPIEGELNDEN WELLEN
N: F0801
O: Europa, Mitteleuropa, Deutschland
R: Geselligkeits -, Moral - Lied
M: 6/8
L: 1/16
K: A
A3GF2 | E2C2E2A3GF2 | E4C2
c3ec2 | B2A2G2A2G2F2 | G4z2
A3GF2 | E2C2E2A3GF2 | E4C2
c3ec2 | B2A2G2A2G2F2 | G4z2
B2c2d2 | e3dc2e2d2c2 | B4E2
A2d2f2 | e3dc2B2A2G2 | A4z2

